img/signature.svg

<svg width="98" height="68" fill="none" xmlns="http://www.w3.org/2000/svg"><path fill-rule="evenodd" clip-rule="evenodd" d="M71.1 65.9c-1.2-2.2 3.8-6.1 5.3-8-6.5.2-.3-3.8 3.3-1.8 0 1.3-7.6 9.7-8.6 9.8zm-3.2-2.3c2.3-.8 7.5-11.4 2.2-6.6.1 2-4.3 4.2-2.2 6.6zm29.9-30c0 9.8-21.5 17.7-29.1 17.8-3.1 3.1-7.8 14.9-12.9 15.9-2.3-3.6 6.7-15.5 10.1-18.6 0-1.5-4.6.7-2.9-3.8-2 .4-9.2 6.7-8.6 0-3.6 2.2-10 6.9-13.4 2.5-2.1.2-8.6 5.9-9.1.2-3 2.1-2.5 1.9-5.3 1.9-4.8 3.1-19.4 11.9-19.4-.3C10.4 37.5 2.3 54.5 0 48c0-4.9 16.4-27.1 19.3-25 0 1.3-8.5 9.5-10 11.2C8.8 35-.4 47.6 2 47.9c8.4-4.4 11.2-13.8 18.3-18.8 4.4.6-2.3 5.5-4 7.5-3.2 2.3-11.9 14.2-5.3 17.5 6.5 0 10.3-3.5 15.6-6.2 2.8-4.4 6.2-7.4 10.2-10.2 8.5-3.9 14.6-15.1 18.8-23.3 1.2-4 2.7-7.3.2-10.9C45.9-3.9 25.9 7.6 18.2 14c-.8-1 8.4-7.7 10.6-8 4.8-3.7 14.6-6 20.9-6C69.9 2.7 49 29.4 42 36.4c0 .6 1.7 2.1-.5 1.2-1.3.1-8.7 9.5-7.9 11 7.6 0 8-8.3 12.8-12.3.2-1.3 8.4-8.4 9.9-4.5-.5 5-10.4 11.6-14 14.4 0 5.1 12.1-3.1 13.2-3.7.4-.6 6.2-7.5 6.2-7.5-4.6-1.4-3.3-2.5 1.1-1.3 2.2-.4 3.4-4.7 6.1-3.2 0 3-6.8 5.7 4 3.8.8-.8 5.1-4.8 4.9-1.5-3.2 2.7 7.7.1 9.4-1.8 4.2 2.7-10.4 4.4-12.4 4.6-2 1.3-11 8.4-10.6 11.3 4.2 0 10.4-7.1 13.5-9.8.9-.1 1.2.7 2.1.5 3.4-2.6 15-9.4 18-4zM43 43.8c2.3-1.3 12.1-9 11.8-11.6-2.8-.3-12.7 9.4-11.8 11.6zm-10.1-.9c.3-.2.6-.3 1-.5 1.4-1.9-.7-.4-1 .5zm28.4-5.2c.7-.7 1.5-1.4 2.2-2-.3-.8-2 1.4-2.2 2zm7 .6c4.6-3.2 1.7-2.5-3.1-2.6-2.6 2.6-9.5 6.9-9.3 11 4.2-.7 9.8-5.2 12.4-8.4zm-1 12.7c-.8-4.7-9.7 11.4-10.3 13.9 4.2-4 7.2-9.2 10.3-13.9zm2.2-4c-.6.5-2.2 1.5-1.5 2.4.5-.5 1.5-1.7 1.5-2.4zm26.4-13.7c-7.4-2.3-24.3 9.6-26.3 16.9C77 49.8 84.7 45 91 41.4c1.4-1.3 7.4-6.1 4.9-8.1z" fill="#FF5A30"/></svg>

<svg width="98" height="68" viewBox="0 0 98 68" fill="none" xmlns="http://www.w3.org/2000/svg">
<path fill-rule="evenodd" clip-rule="evenodd" d="M71.1 65.9C69.9 63.7 74.9 59.8 76.4 57.9C69.9 58.1 76.1 54.1 79.7 56.1C79.7 57.4 72.1 65.8 71.1 65.9ZM67.9 63.6C70.2 62.8 75.4 52.2 70.1 57C70.2 59 65.8 61.2 67.9 63.6ZM97.8 33.6C97.8 43.4 76.3 51.3 68.7 51.4C65.6 54.5 60.9 66.3 55.8 67.3C53.5 63.7 62.5 51.8 65.9 48.7C65.9 47.2 61.3 49.4 63 44.9C61 45.3 53.8 51.6 54.4 44.9C50.8 47.1 44.4 51.8 41 47.4C38.9 47.6 32.4 53.3 31.9 47.6C28.9 49.7 29.4 49.5 26.6 49.5C21.8 52.6 7.2 61.4 7.2 49.2C10.4 37.5 2.3 54.5 0 48C0 43.1 16.4 20.9 19.3 23C19.3 24.3 10.8 32.5 9.3 34.2C8.8 35 -0.4 47.6 2 47.9C10.4 43.5 13.2 34.1 20.3 29.1C24.7 29.7 18 34.6 16.3 36.6C13.1 38.9 4.4 50.8 11 54.1C17.5 54.1 21.3 50.6 26.6 47.9C29.4 43.5 32.8 40.5 36.8 37.7C45.3 33.8 51.4 22.6 55.6 14.4C56.8 10.4 58.3 7.1 55.8 3.5C45.9 -3.9 25.9 7.6 18.2 14C17.4 13 26.6 6.3 28.8 6C33.6 2.3 43.4 0 49.7 0C69.9 2.7 49 29.4 42 36.4C42 37 43.7 38.5 41.5 37.6C40.2 37.7 32.8 47.1 33.6 48.6C41.2 48.6 41.6 40.3 46.4 36.3C46.6 35 54.8 27.9 56.3 31.8C55.8 36.8 45.9 43.4 42.3 46.2C42.3 51.3 54.4 43.1 55.5 42.5C55.9 41.9 61.7 35 61.7 35C57.1 33.6 58.4 32.5 62.8 33.7C65 33.3 66.2 29 68.9 30.5C68.9 33.5 62.1 36.2 72.9 34.3C73.7 33.5 78 29.5 77.8 32.8C74.6 35.5 85.5 32.9 87.2 31C91.4 33.7 76.8 35.4 74.8 35.6C72.8 36.9 63.8 44 64.2 46.9C68.4 46.9 74.6 39.8 77.7 37.1C78.6 37 78.9 37.8 79.8 37.6C83.2 35 94.8 28.2 97.8 33.6ZM43 43.8C45.3 42.5 55.1 34.8 54.8 32.2C52 31.9 42.1 41.6 43 43.8ZM32.9 42.9C33.2 42.7 33.5 42.6 33.9 42.4C35.3 40.5 33.2 42 32.9 42.9ZM61.3 37.7C62 37 62.8 36.3 63.5 35.7C63.2 34.9 61.5 37.1 61.3 37.7ZM68.3 38.3C72.9 35.1 70 35.8 65.2 35.7C62.6 38.3 55.7 42.6 55.9 46.7C60.1 46 65.7 41.5 68.3 38.3ZM67.3 51C66.5 46.3 57.6 62.4 57 64.9C61.2 60.9 64.2 55.7 67.3 51ZM69.5 47C68.9 47.5 67.3 48.5 68 49.4C68.5 48.9 69.5 47.7 69.5 47ZM95.9 33.3C88.5 31 71.6 42.9 69.6 50.2C77 49.8 84.7 45 91 41.4C92.4 40.1 98.4 35.3 95.9 33.3Z" fill="#FF5A30"/>
</svg>
